X:256
T:Fisher's Hornpipe
S:Colin Hume's website,  colinhume.com  - chords can also be printed below the stave.
Q:1/2=120
M:2/2
L:1/8
K:D
P:A
|: (3ABc | "D"dAFA "G"GBAG | "D"FAFA "G"GBAG | "D"FDFD "A7"GEGE | "D"FDFD "A7"E2(3ABc |
"D"dAFA "G"GBAG | "D"FAFA "G"GBAG | "D"FAdA "A7"fedc | "D"d2f2 d2 :|
P:B
|: cd | "A7"ecAc ecge | "D"fdAd fdaf | "A"ecAc ecgf | "E7"edcB "A"A2A2 |
"G"BGDG BGdB | "D"AFDF AFdA | "G"BdcB "A7"AGFE | "D"D2F2 D2 :|

